X: 30285
T: Old Maids Of Galway, The
R: reel
M: 4/4
K: Bminor
dc||BE ~E2 B2AF|EFDE FA A2|BE ~E2 B2AF|EFDE FD D2|
BE ~E2 B2AF|EFDE FA A2|BAFA dBAF|EFDE FD D2:|
dfed BAFA|dfed Be e2|dfed B2 AF|EFDE FD D2|
dfed BAFA|dfed Be e2|fdef dBAF|EFDE FD D2:|

